X:5
T:The Witches
Z:Jack Campin  2006  http://www.campin.me.uk/
C:Joseph Lowe
M:C|
L:1/8
Q:1/2=108
K:E Minor
F|(EB)BG (FD)DF|(EB)BG (GA)B^c|   dBAG FDDF|EBAF GEE:|
f| gfeg   Bgeg |(fd)ad (bd)ad |[1 gfeg Bgeg|fdaf gee:|
                               [2 gfef deBd|AdFA BEE|]
